X:1
T:E  Major James P. Carrell, 1821
T:Charles Wesley, 1742 After a relapse into sin           76. 76. 78. 76.
T:Sylvestes
T:Transcribed from Songs of Zion, 1821
%%score [ 1 2 3 4 ]
L:1/8
Q:1/4=110
M:4/4
K:Eb
V:1 treble nm="Tr." snm="Tr."
V:2 treble nm="C." snm="C."
V:3 treble-8 nm="T." snm="T."
V:4 bass nm="B." snm="B."
V:1
"^1. God  of my salvation, hear,  And help me   to    be – lieve, _______  Simply do I now draw near  A   bles  –  sing   to   re–ceive,    A \n2. Standing now as newly slain,  To  thee   I     lift   mine  eye, _______  Balm of all my grief and pain,  Thy blood  is  always nigh,   Thy" c4 B4 | %1
 B2 G2 e2 A2 | B6 B2 | cd cB G4 | A4 (BAGF- | F4) E2 E2 | A2 G2 A2 B2 | B6 B2 | (e2 d2 c2) B2 | %9
 A4 c4 | B6 AB | %11
"^1. bles – sing    to   receive;  Full  of  guilt  a – las! ____   I     am, But to thy wounds for refuge  flee,\n2. blood  is     always  nigh:  Now   as   yes–ter–day __ the  same  Thou  art,  and  wilt  for  ever  be:" c2 B2 e2 d2 | %12
 e8 | f3 e d2 c2 | (B3 c B2) d2 | e6 e2 | e2 d2 c2 B2 | A2 A2 B4- | %18
 B2 z2"^Friend of sin          –          ners," c2 c2 | (edcB c2) e2 | %20
"^spot      –      less    Lamb,  ___  Thy  blood  was  shed  for    me." (e3 A G2) E2 | %21
 (F3 G A2) B2 | e6 c2 | B4 B4 | B8 |] %25
V:2
"^3. Full of truth and grace thou art,  And here is all my hope: _____   False and foul as hell my heart  To   thee ____ I   of – fer   up,  To\n4. Nothing  have I, Lord, to pay,  Nor can thy grace procure, ________  Empty send me not away, For  I  thou know'st am poor:  For" E4 E4 | %1
 D2 E2 F2 F2 | G6 F2 | E2 F2 G4 | F4 (BAGF- | F4) G2 G2 | E2 E2 A2 G2 | G6 G2 | (A2 G2 F2) E2 | %9
 F4 G4 | F6 F2 | %11
"^3. thee     I     of – fer    up;    Thou wast given  to               re–deem   My  soul  from  all  in–i–qui–ty:\n4. I thou know'st am poor:  Dust and a –shes   is              my name,  My  all     is   sin  and  mi–se–ry:" E2 E2 G2 B2 | %12
 G8 | B3 A G2 F2 | G6 F2 | E6 E2 | E2 F2 GA B2 | A2 A2 F4- | %18
 F2 z2"^Friend of sin          –          ners," G2 G2 | (E3 F E2) BA | %20
"^spot      –      less    Lamb,  ___  Thy  blood  was  shed  for    me." G6 F2 | (F3 G A2) G2 | %22
 B6 FE | E4 D4 | E8 |] %25
V:3
"^5. Without money, without price  I  come  thy  love   to   buy, _____  From myself I turn my eyes,  The  chief    of    sinners    I:    The\n6. No good work or word or thought  Bring I to gain thy grace, _____      Pardon I accept unbought,  Thy prof – fer   I   embrace,   Thy" E4 G4 | %1
 F2 E2 AB c2 | B6 B2 | cB cd e4 | c4 (fedc | B4) B2 B2 | c2 B2 c2 d2 | e6 e2 | (c2 B2 A2) G2 | %9
 A4 G4 | F6 A2 | %11
"^5. chief  of    sinners    I:     Take, O  take me  as  ______ I     am,   And  let  me lose  myself in  thee: \n6. prof–fer  I  em–brace,     Co – ming  as  at first ______I   came   To take, and not bestow on thee:" G2 BA G2 F2 | %12
 E8 | B3 c B2 A2 | (G3 A G2) A2 | B6 B2 | c2 d2 e2 B2 | c2 c2 B4- | %18
 B2 z2"^Friend of sin          –          ners," e2 e2 | (cdcB A2) GA | %20
"^spot      –      less    Lamb,  ___  Thy  blood  was  shed  for    me." (B3 c B2) G2 | %21
 (c2 B2 c2) d2 | e6 A2 | G4 F4 | E8 |] %25
V:4
"^7. Je – sus, un–to thee  my   sin   I      qui – et  –   ly     con–fess,   Till thy blood shall wash me clean  From all ___unrighteousness,  From\n8. Savior, from thy wounded side  I   ne – ver     will   de – part, ______ Here will I my spirit hide  When I ____am pure in heart: When" E,4 E,4 | %1
 B,,2 E,2 A,2 F,2 | E,6 B,2 | G,2 F,2 E,4 | F,4 (F,E,D,C, | B,,4) E,2 E,2 | C,2 E,2 F,2 B,,2 | %7
 E,6 E,2 | (A,2 G,2 F,2) E,2 | D,4 E,4 | F,6 D,2 | %11
"^7. all   un-right-eous-ness,   From  the  slightest  touch  of  blame   My  spirit,  soul,  and  body  free:\n8. I     am   pure  in  heart:   Till   my  place a–bove ___    I  claim   This  only  shall  be   all   my  plea," E,F, G,A, B,2 B,,2 | %12
 E,8 | B,3 A, G,2 F,2 | E,6 D,2 | E,6 E,2 | A,2 F,2 G,2 E,2 | C,2 C,2 B,,4- | %18
 B,,2 z2"^Friend of sin          –          ners," E,2 C,2 | (G,3 F, E,2) D,2 | %20
"^___________________________________\nEdited  by B. C. Johnston, 2017\n   1. Measure 21, Counter: last note (F) moved down an octave.""^spot      –      less    Lamb,  ___  Thy  blood  was  shed  for    me." E,6 G,2 | %21
 (F,4 E,2) B,,2 | E,6 G,A, | B,4 B,,4 | E,8 |] %25

